X:1
T:Lucis Creator (No. 2)
T:Lucis Creator (No. 2)
T:Oliver Hayes
C:Oliver Hayes
%%score [ 1 2 3 4 ]
L:1/8
Q:1/4=180
M:none
K:Bb
V:1 treble nm="Soprano" snm="S"
V:2 treble nm="Alto" snm="A"
V:3 treble-8 nm="Tenor" snm="T"
V:4 bass nm="Bass" snm="B"
V:1
 z16 | z11 | z16 | z9 | z16 | z11 | z16 | z9 ||[M:3/2] F12 | G8 G4 | B6 c2 d2 c2 | B2 A2 G2 F2 E4 | %12
w: ||||||||2.Qui|ma- ne|jun- * ctum _|ve- * * * spe-|
 F12 | G4 B4 G4 | A8 A4 | G8 F4 | A12 | z12 | z12 | z12 | z8 G4 | A8 F4 | G8 B2 c2 | d4 B4 A4 | %24
w: ri,|di- em vo-|ca- ri|prae- ci-|pis,||||au-||di, au- *|di pre- ces|
 G4 F8- | F8 A4 | A12 || z16 | z11 | z16 | z9 | z16 | z11 | z16 | z9 ||[M:3/2] F12 | G8 G4 | %37
w: cum fle-|* ti-|bus.|||||||||4.Cae-|le- ste|
 B6 c2 d2 c2 | B2 A2 G2 F2 E4 | F12 | G4 B4 G4 | A8 A4 | G8 F4 | A12 | z12 | z12 | z12 | z8 G4 | %48
w: pul- * set _|o- * * * sti-|um,|vi- ta- le|tol- lat|prae- mi-|um,||||pur-|
 A8 F4 | G8 B2 c2 | d4 B4 A4 | G4 F8 | F8 A4 | A12 || z16 | z11 | z16 | z9 | z16 | z11 | z16 | %61
w: ge- *|mus, pur- *|ge- * mus|om- ne|pes- si-|mum.||||||||
 z9 || z12 |] %63
w: ||
V:2
 z16 | z11 | z16 | z9 | z16 | z11 | z16 | z9 ||[M:3/2] C8 D4 | E8 C4 | D8 F4 | G4 E4 B,4 | D8 D4 | %13
w: ||||||||2.Qui _|ma- ne|jun- ctum|ve- * spe-|ri, di-|
 D8 E4 | F8 F4 | E4 B,8 | F8 C4 | E4 G4 E4 | D8 C4 | E8 E4 | E12 | C8 F4 | E4 C4 D4 | D8 F4 | %24
w: em vo-|ca- ri|prae- ci-|pis, il-|la- * bi-|tur te-|trum cha-|os,|au- di,|au- * di|pre- ces|
 E4 D8 | C8 C4 | C12 || z16 | z11 | z16 | z9 | z16 | z11 | z16 | z9 ||[M:3/2] C8 D4 | E8 C4 | %37
w: cum fle-|* ti-|bus.|||||||||4.Cae- *|le- ste|
 D8 F4 | G4 E4 B,4 | D8 D4 | D8 E4 | F8 F4 | E4 B,8 | F8 C4 | E4 G4 E4 | D8 C4 | E8 E4 | E12 | %48
w: pul- set|o- * sti-|um, vi-|ta- le|tol- lat|prae- mi-|um, vi-|te- * mus|om- ne|no- xi-|um,|
 C8 F4 | E4 C4 D4 | D8 F4 | E4 D8 | C8 C4 | C12 || z16 | z11 | z16 | z9 | z16 | z11 | z16 | z9 || %62
w: pur- *|ge- mus, pur-|ge- mus|om- ne|pes- si-|mum.|||||||||
 z12 |] %63
w: |
V:3
 !stemless!F2 !stemless!G2- !stemless!B2 !stemless!B2 !stemless!B2- !stemless!A2 !stemless!G2- !stemless!F2 | %1
w: 1.Lu- cis _ cre- a- * tor _|
 !stemless!B2 !stemless!c2 !stemless!A2- !stemless!G2 !stemless!F3 | %2
w: o- pti- me, _ _|
 !stemless!B2- !stemless!c2 !stemless!d2- !stemless!B2 !stemless!c2 !stemless!B2- !stemless!A2 !stemless!G2 | %3
w: lu- * cem _ di- e- * *|
 !stemless!A2 !stemless!A2 !stemless!G2 !stemless!F3 | %4
w: rum pro- fe- rens,|
 !stemless!F2 !stemless!G2- !stemless!B2 !stemless!B2 !stemless!B2- !stemless!A2 !stemless!G2- !stemless!F2 | %5
w: pri- mor- * di- is _ lu- *|
 !stemless!B2 !stemless!c2 !stemless!A2- !stemless!G2 !stemless!F3 | %6
w: cis no- vae, _ _|
 !stemless!B2- !stemless!c2 !stemless!d2- !stemless!B2 !stemless!c2 !stemless!B2- !stemless!G2 !stemless!A2 | %7
w: mun- * di _ pa- rans _ o-|
 !stemless!G2- !stemless!A2 !stemless!G2 !stemless!F3 ||[M:3/2] A12 | c8 G4 | B8 A4 | G4 B4 G4 | %12
w: ri- * gi- nem.-|2.Qui|ma- ne|jun- ctum|ve- * spe-|
 B8 B4- | B4 G4 B4 | d8 c4 | c4 B4 d4 | c8 A4 | c8 G4 | F4 A8 | G8 c4 | B12 | A4 c2 B2 A2 F2 | %22
w: ri, di-|* em vo-|ca- ri|prae- * ci-|pis, il-|la- bi-|tur te-|trum cha-|os,|au- * * di, _|
 G4 c4 B4 | f4 B4 c4 | c4 B8 | A8 F4 | F12 || %27
w: au- * di|pre- * ces|cum fle-|* ti-|bus.|
 !stemless!F2 !stemless!G2- !stemless!B2 !stemless!B2 !stemless!B2- !stemless!A2 !stemless!G2- !stemless!F2 | %28
w: 3.Ne mens _ gra- va- * ta _|
 !stemless!B2 !stemless!c2 !stemless!A2- !stemless!G2 !stemless!F3 | %29
w: cri- mi- ne, _ _|
 !stemless!B2- !stemless!c2 !stemless!d2- !stemless!B2 !stemless!c2 !stemless!B2- !stemless!A2 !stemless!G2 | %30
w: vi- * tae _ sit ex- * *|
 !stemless!A2 !stemless!A2 !stemless!G2 !stemless!F3 | %31
w: sul mu- ne- re,|
 !stemless!F2 !stemless!G2- !stemless!B2 !stemless!B2 !stemless!B2- !stemless!A2 !stemless!G2- !stemless!F2 | %32
w: dum nil _ pe- ren- * ne _|
 !stemless!B2 !stemless!c2 !stemless!A2- !stemless!G2 !stemless!F3 | %33
w: co- gi- tat, _ _|
 !stemless!B2- !stemless!c2 !stemless!d2- !stemless!B2 !stemless!c2 !stemless!B2- !stemless!G2 !stemless!A2 | %34
w: se- * se- * que cul- * pis|
 !stemless!G2- !stemless!A2 !stemless!G2 !stemless!F3 ||[M:3/2] A12 | c8 G4 | B8 A4 | G4 B4 G4 | %39
w: il- * li- gat.|4.Cae-|le- ste|pul- set|o- * sti-|
 B8 B4 | B4 G4 B4 | d8 c4 | c4 B4 d4 | c8 A4 | c8 G4 | F4 A8 | G8 c4 | B12 | A4 c2 B2 A2 F2 | %49
w: um, vi-|ta- * le|tol- lat|prae- * mi-|um, vi-|te- mus|om- ne|no- xi-|um,|pur- * * * *|
 G4 c4 B4 | f4 B4 c4 | c4 B8 | A8 F4 | F12 || %54
w: ge- * mus,|pur- ge- mus|om- ne|pes- si-|mum.|
 !stemless!F2 !stemless!G2- !stemless!B2 !stemless!B2 !stemless!B2- !stemless!A2 !stemless!G2- !stemless!F2 | %55
w: 5.Prae- sta _ Pa- ter _ pi- *|
 !stemless!B2 !stemless!c2 !stemless!A2- !stemless!G2 !stemless!F3 | %56
w: is- si- me, _ _|
 !stemless!B2- !stemless!c2 !stemless!d2- !stemless!B2 !stemless!c2 !stemless!B2- !stemless!A2 !stemless!G2 | %57
w: pa- * tri- * que com- * *|
 !stemless!A2 !stemless!A2 !stemless!G2 !stemless!F3 | %58
w: par u- ni- ce,|
 !stemless!F2 !stemless!G2- !stemless!B2 !stemless!B2 !stemless!B2- !stemless!A2 !stemless!G2- !stemless!F2 | %59
w: cum Spi- * ri- tu _ pa- *|
 !stemless!B2 !stemless!c2 !stemless!A2- !stemless!G2 !stemless!F3 | %60
w: ra- cli- to, _ _|
 !stemless!B2- !stemless!c2 !stemless!d2 !stemless!B2 !stemless!c2 !stemless!B2 !stemless!G2 !stemless!A2 | %61
w: reg- * nans _ per om- * ne|
 !stemless!G2- !stemless!A2 !stemless!G2 !stemless!F3 || %62
w: sae- * cu- lum.|
 !stemless!F2- !stemless!G2 !stemless!F2 !stemless!E3 !stemless!F3 |] %63
w: A- * * men. _|
V:4
 z16 | z11 | z16 | z9 | z16 | z11 | z16 | z9 ||[M:3/2] F,6 E,2 D,4 | C,6 D,2 E,2 F,2 | G,8 D,4 | %11
w: ||||||||2.Qui _ ma-|ne _ _ _|jun- ctum|
 E,4 G,4 E,4 | B,8 B,4 | G,4 G,2 F,2 E,4 | D,6 E,2 F,4 | C,4 E,4 B,,4 | F,8 F,4 | %17
w: ve- * spe-|ri, di-|em vo- * *|ca- * ri|prae- * ci-|pis, il-|
 G,2 F,2 E,2 D,2 C,4 | D,6 E,2 F,4 | C,4 C,2 B,,2 _A,,4 | E,12 | F,8 C,4 | C,2 D,2 E,2 F,2 G,4 | %23
w: la- * * * bi-|tur _ te-|trum cha- * *|os,|au- di,|au- * * * di|
 B,2 A,2 G,4 F,4 | C,4 D,2 E,2 F,2 B,,2 | F,4 F,,4 F,,4- | F,,12 || z16 | z11 | z16 | z9 | z16 | %32
w: pre- * ces cum|fle- * * * *|* ti- bus.|_||||||
 z11 | z16 | z9 ||[M:3/2] F,6 E,2 D,4 | C,6 D,2 E,2 F,2 | G,8 D,4 | E,4 G,4 E,4 | B,8 B,4 | %40
w: |||4.Cae- le- *|ste _ _ _|pul- set|o- * sti-|um, vi-|
 G,6 F,2 E,4 | D,6 E,2 F,4 | C,4 E,4 B,,4 | F,8 F,4 | G,2 F,2 E,2 D,2 C,4 | D,6 E,2 F,4 | %46
w: ta- * le|tol- * lat|prae- * mi-|um, vi-|te- * * * mus|om- * ne|
 C,6 B,,2 _A,,4 | E,12 | F,8 C,4 | C,2 D,2 E,2 F,2 G,4 | B,2 A,2 G,4 F,4 | C,4 D,2 E,2 F,2 B,,2 | %52
w: no- * xi-|um,|pur- *|ge- * * * mus,|pur- * ge- *|mus om- * ne _|
 F,4 F,,4 F,,4- | F,,12 || z16 | z11 | z16 | z9 | z16 | z11 | z16 | z9 || z12 |] %63
w: pes- si- mum.|_||||||||||

